!!!COM: Vinci, Pietro
!!!CDT:
!!!PTL: Il quarto libro de madrigali a cinque voci
!!!PPP: Venice
!!!PPR: Heir of G. Scotto
!!!PDT: 1573
!!!PUB-format:
!!!RISM: V 1679
!!!rime: 560
!!!OTL: Tarquinia, se rimiri
!!!AGN: Madrigal
!!!SCT: Trm0560b
!!!SCA: Trm0560b
!!!original-voices: 5
!!!extant-voices: 5
!!!complete: Y
!!!final: A
**kern	**text	**kern	**text	**kern	**text	**kern	**text	**kern	**text
*part5	*part5	*part4	*part4	*part3	*part3	*part2	*part2	*part1	*part1
*staff5	*staff5	*staff4	*staff4	*staff3	*staff3	*staff2	*staff2	*staff1	*staff1
*I"Basso	*	*I"Quinto	*	*I"Tenore	*	*I"Alto	*	*I"Canto	*
*I'B	*	*I'V	*	*I'T	*	*I'A	*	*I'C	*
*oclefF4	*	*oclefC4	*	*oclefC4	*	*oclefC3	*	*oclefC1	*
*clefF4	*	*clefGv2	*	*clefGv2	*	*clefG2	*	*clefG2	*
*k[]	*	*k[]	*	*k[]	*	*k[]	*	*k[]	*
*omet(C)	*	*omet(C)	*	*omet(C)	*	*omet(C)	*	*omet(C)	*
*M4/2	*	*M4/2	*	*M4/2	*	*M4/2	*	*M4/2	*
=1	=1	=1	=1	=1	=1	=1	=1	=1	=1
1D	Men-	1d	Men-	1A	Men-	2r	.	1f	Men-
.	.	.	.	.	.	1a	Men-	.	.
1AA	-tre,	1c	-tre,	2A	-tre,	.	.	[1e	-tre,
.	.	.	.	2A	mia	2a	-tre,	.	.
=2	=2	=2	=2	=2	=2	=2	=2	=2	=2
2r	.	2r	.	2c	stel-	2g	mia	2e]	.
2F	mia	2A	mia	2c	-la,	1f	stel-	2a	mia
2F	stel-	2c	stel-	4F	mi-	.	.	2a	stel-
.	.	.	.	4G	.	.	.	.	.
2D	-la,	2d	-la,	4A	.	2f	-la,	2a	-la,
.	.	.	.	4F	.	.	.	.	.
=3	=3	=3	=3	=3	=3	=3	=3	=3	=3
1C	mi-	1e	mi-	2G	.	4e	mi-	1cc	mi-
.	.	.	.	.	.	4d	.	.	.
.	.	.	.	2G	-ri	4c	.	.	.
.	.	.	.	.	.	4B	.	.	.
1C	-ri	1e	-ri	2r	.	4A	.	1cc	-ri
.	.	.	.	.	.	4G	.	.	.
.	.	.	.	2G	I	[2c	.	.	.
=4	=4	=4	=4	=4	=4	=4	=4	=4	=4
1r	.	4r	.	4A	bei	4c]	.	2r	.
.	.	4G	I	4B	ce-	4d	-ri	.	.
.	.	4A	bei	4.c	-le-	2r	.	4r	.
.	.	4E	ce-	.	.	.	.	4g	I
.	.	.	.	8c	-sti	.	.	.	.
2r	.	4F	-le-	4c	gi-	4r	.	4a	bei
.	.	4G	-sti	4B	-ri,	4d	I	4b	ce-
2C	I	4G	gi-	2r	.	4.e	bei	4.cc	-le-
.	.	4A	-ri,	.	.	.	.	.	.
.	.	.	.	.	.	16dL	.	8b	.
.	.	.	.	.	.	16eJ	.	.	.
=5	=5	=5	=5	=5	=5	=5	=5	=5	=5
4D	bei	4A	I	1r	.	4f	.	4a	.
4E	ce-	4c	bei	.	.	4e	ce-	4g	-sti
4F	-le-	4c	ce-	.	.	2.A	-le-	4a	gi-
4D	-sti	2d	-le-	.	.	.	.	8gL	.
.	.	.	.	.	.	.	.	8fJ	.
2A	gi-	.	.	2r	.	.	.	8eL	.
.	.	.	.	.	.	.	.	8AJ	.
.	.	4c	-sti	.	.	4e	-sti	4.a	.
2E	-ri,	2B	gi-	4r	.	2e	gi-	.	.
.	.	.	.	.	.	.	.	8g#X	.
.	.	.	.	4B	Il	.	.	4g#i	.
=6	=6	=6	=6	=6	=6	=6	=6	=6	=6
2r	.	2A	-re,	4c	ciel	2e	-ri,	1a	-ri,
.	.	.	.	4c	es-	.	.	.	.
2A	Il	2r	.	4c	-ser	1e	Il	.	.
.	.	.	.	4c	vor-	.	.	.	.
4.c	ciel	4r	.	1A	-re-	.	.	4r	.
.	.	4A	Il	.	.	.	.	2a	Il
8B	.	.	.	.	.	.	.	.	.
8AL	.	4e	ciel	.	.	[2a	ciel,	.	.
8G	.	.	.	.	.	.	.	.	.
8F	.	4f	es-	.	.	.	.	[4dd	ciel
8EJ	.	.	.	.	.	.	.	.	.
=7	=7	=7	=7	=7	=7	=7	=7	=7	=7
4D	.	4.f	-ser	2A	-i,	2a]	.	4dd]	.
4F	es-	.	.	.	.	.	.	4cc	es-
.	.	8e	.	.	.	.	.	.	.
4G	-ser	4d	.	2r	.	4r	.	8b	-ser
.	.	.	.	.	.	.	.	8b	vor-
4A	vor-	4c	vor-	.	.	4e	Il	4.cc	-re-
2G	-re-	2d	-re-	4r	.	2.g	ciel	.	.
.	.	.	.	.	.	.	.	16bL	.
.	.	.	.	.	.	.	.	16aJ	.
.	.	.	.	2G	Il	.	.	4b	.
2C	-i;	2e	-i;	.	.	.	.	4cc	-i,
.	.	.	.	[4c	ciel	4g	es-	4g	Il
=8	=8	=8	=8	=8	=8	=8	=8	=8	=8
0r	.	0r	.	4c]	.	4e	-ser	4cc	ciel
.	.	.	.	4A	es-	4e	vor-	4cc	es-
.	.	.	.	4d	-ser	4f#X	-re-	4a	-ser
.	.	.	.	4e	vor-	4.g	.	4g	vor-
.	.	.	.	2d	-re-	.	.	2a	-re-
.	.	.	.	.	.	8f#XL	.	.	.
.	.	.	.	.	.	8f#X	.	.	.
.	.	.	.	.	.	16e	.	.	.
.	.	.	.	.	.	16f#XJ	.	.	.
.	.	.	.	2G	-i,	2g	.	2b	-i;
=9	=9	=9	=9	=9	=9	=9	=9	=9	=9
4r	.	2A	Per-	4r	.	2c	-i;	0r	.
4F	Per-	.	.	2A	Per-	.	.	.	.
4F	-ché	4c	-ché	.	.	2r	.	.	.
4E	tu	4e	tu	2c	-ché	.	.	.	.
4G	ri-	4d	ri-	.	.	1r	.	.	.
4G	-vol-	4d	-vol-	4B	tu	.	.	.	.
4.A	-ge-	8cL	-ge-	4c	ri-	.	.	.	.
.	.	8B	.	.	.	.	.	.	.
.	.	8A	.	4F	-vol-	.	.	.	.
8G	.	8BJ	.	.	.	.	.	.	.
=10	=10	=10	=10	=10	=10	=10	=10	=10	=10
8AL	.	8cL	.	4F	-ge-	1r	.	1r	.
8BJ	.	8dJ	.	.	.	.	.	.	.
2c	.	2e	.	4C	-sti	.	.	.	.
.	.	.	.	4G	Fi-	.	.	.	.
4B	-sti	4d	-sti	4G	-so,	.	.	.	.
2A	Fi-	4c	Fi-	4r	.	2r	.	2r	.
.	.	4A	-so,	4D	Per-	.	.	.	.
2D	-so	4r	.	[2F	-ché	2A	Per-	4r	.
.	.	4A	Per-	.	.	.	.	4f	Per-
=11	=11	=11	=11	=11	=11	=11	=11	=11	=11
0r	.	8AL	-ché	4F]	.	4c	-ché	4f	-ché
.	.	8BJ	.	.	.	.	.	.	.
.	.	4.c	.	4A	tu	4c	tu	4e	tu
.	.	.	.	4G	ri-	4.d	ri-	4g	ri-
.	.	8BL	.	.	.	.	.	.	.
.	.	8B	.	4G	-vol-	.	.	4g	-vol-
.	.	16A	.	.	.	8e	-vol-	.	.
.	.	16BJ	.	.	.	.	.	.	.
.	.	4c	.	8FL	-ge-	4.f	-ge-	4.a	-ge-
.	.	.	.	8E	.	.	.	.	.
.	.	4f	tu	8D	.	.	.	.	.
.	.	.	.	8EJ	.	8e	.	8g	.
.	.	4f	ri-	8FL	.	4d	.	8aL	.
.	.	.	.	8GJ	.	.	.	8bJ	.
.	.	4e	-vol-	[4A	.	8cL	.	[4cc	.
.	.	.	.	.	.	8BJ	.	.	.
=12	=12	=12	=12	=12	=12	=12	=12	=12	=12
0r	.	4e	-ge-	4A]	.	4A	.	4cc]	.
.	.	4E	-sti	4G#X	-sti	4B	-sti	4b	-sti
.	.	2F	Fi-	2A	Fi-	2d	Fi-	2a	Fi-
.	.	4E	-so	2B	-so	4e	-so	4g	-so
.	.	4E	ne'	.	.	4e	ne'	4g	ne'
.	.	4F	lu-	2r	.	4A	lu-	4f	lu-
.	.	4C	-mi	.	.	4c	-mi	4e	-mi
=13	=13	=13	=13	=13	=13	=13	=13	=13	=13
1r	.	2G	mie-	1r	.	2B	mie-	2d	mie-
.	.	2G	-i	.	.	2.B	-i	2d	-i
4r	.	1r	.	2E	Le	.	.	4r	.
4C	Le	.	.	.	.	4e	Le	4g	Le
4F	tue	.	.	4A	tue	4c	tue	4a	tue
[4D	dol-	.	.	[4A	dol-	[4d	dol-	[4f	dol-
=14	=14	=14	=14	=14	=14	=14	=14	=14	=14
8D]	.	0r	.	8A]	.	8d]	.	8f]	.
8D	-ci	.	.	8A	-ci	8d	-ci	8f	-ci
4AA	fa-	.	.	4A	fa-	4c	fa-	4e	fa-
1E	-vil-	.	.	1G#X	-vil-	1B	-vil-	1e	-vil-
2E	-le,	.	.	2G#X	-le,	2B	-le,	2e	-le,
=15	=15	=15	=15	=15	=15	=15	=15	=15	=15
4r	.	2E	Le	0r	.	4r	.	4r	.
4C	Le	.	.	.	.	4e	Le	4g	Le
4F	tue	4A	tue	.	.	4c	tue	4a	tue
4.D	dol-	4.A	dol-	.	.	4.d	dol-	4.f	dol-
8D	-ci	8A	-ce	.	.	8d	-ci	8f	-ci
4AA	fa-	4A	fa-	.	.	4c	fa-	4e	fa-
[2E	-vil-	[2G#X	-vil-	.	.	[2B	-vil-	2e	-vil-
=16	=16	=16	=16	=16	=16	=16	=16	=16	=16
2E]	.	2G#]	.	2r	.	2B]	.	2e	-le,
2E	-le,	2G#X	-le,	4r	.	2B	-le,	4r	.
.	.	.	.	4E	Io	.	.	4b	Io
1r	.	1r	.	8GL	va-	2r	.	4b	va-
.	.	.	.	8A	.	.	.	.	.
.	.	.	.	8B	.	.	.	4dd	-gheg-
.	.	.	.	8GJ	.	.	.	.	.
.	.	.	.	4A	.	4r	.	4cc	-giar
.	.	.	.	4G#X	-gheg-	4e	Io	4b	po-
=17	=17	=17	=17	=17	=17	=17	=17	=17	=17
2r	.	4r	.	4A	-gia-	4e	va-	8ccL	-tes-
.	.	.	.	.	.	.	.	8b	.
.	.	4e	Io	4E	-re,	4g	-gheg-	8b	.
.	.	.	.	.	.	.	.	16a	.
.	.	.	.	.	.	.	.	16gJ	.
4r	.	4d	va-	4r	.	4f	-giar	4a	.
4E	Io	4B	-gheg-	4G	Io	4e	po-	4g	-si,
4E	va-	4e	-gia-	4c	va-	2g	-tes-	2r	.
4G	-gheg-	4d	-re	4B	-gheg-	.	.	.	.
4F	-giar	4r	.	8A	-giar	2c	-si,	4r	.
.	.	.	.	8A	po-	.	.	.	.
4E	po-	4e	po-	[4c	-tes-	.	.	4g	po-
=18	=18	=18	=18	=18	=18	=18	=18	=18	=18
2G	-tes-	2d	-tes-	8c]L	.	2r	.	2g	-tes-
.	.	.	.	8BJ	.	.	.	.	.
.	.	.	.	4B	.	.	.	.	.
2C	-si	2e	-si	4c	-si	4r	.	2g	-si
.	.	.	.	4G	Mil-	4e	po-	.	.
4r	.	1r	.	4c	-le	2e	-tes-	2r	.
4.E	Mil-	.	.	4c	bel-	.	.	.	.
.	.	.	.	2B	-lez-	2e	-si	2g	Mil-
8E	-le	.	.	.	.	.	.	.	.
4E	bel-	.	.	.	.	.	.	.	.
=19	=19	=19	=19	=19	=19	=19	=19	=19	=19
4F	-lez-	2r	.	2A	-ze	4r	.	4cc	-le
4A	-ze	.	.	.	.	4e	Mil-	4cc	bel-
2G	tue	4r	.	2.d	tue	4g	-le	2b	-lez-
.	.	4G	Mil-	.	.	4d	bel-	.	.
1r	.	4A	-le	.	.	4f	-lez-	2a	-ze
.	.	4A	bel-	4c	con	4e	-ze	.	.
.	.	[2G	-lez-	8BL	oc-	2g	tue	2dd	tue
.	.	.	.	8A	.	.	.	.	.
.	.	.	.	8B	.	.	.	.	.
.	.	.	.	8cJ	.	.	.	.	.
=20	=20	=20	=20	=20	=20	=20	=20	=20	=20
4r	.	4G]	.	4d	.	2g	con	4b	con
4C	con	4E	-ze	4e	-chi	.	.	2cc	oc-
8CL	oc-	4e	tue	4E	mil-	2.g	oc-	.	.
8D	.	.	.	.	.	.	.	.	.
8E	.	4e	con	4E	-le,	.	.	8bL	.
8FJ	.	.	.	.	.	.	.	8aJ	.
4G	.	4d	oc-	4r	.	.	.	4b	.
4A	-chi	4c	-chi	2A	mil-	4e	-chi	4a	-chi
8AAL	mil-	2c	mil-	.	.	2e	mil-	2a	mil-
8BB	.	.	.	.	.	.	.	.	.
8C	.	.	.	4E	-le,	.	.	.	.
8DJ	.	.	.	.	.	.	.	.	.
=21	=21	=21	=21	=21	=21	=21	=21	=21	=21
4E	.	2B	-le,	4r	.	2e	-le,	4g#X	-le,
4E	-le,	.	.	4G	Io	.	.	4b	Io
2r	.	2r	.	8GL	va-	2r	.	4b	va-
.	.	.	.	8A	.	.	.	.	.
.	.	.	.	8B	.	.	.	4dd	-gheg-
.	.	.	.	8GJ	.	.	.	.	.
1r	.	2r	.	4A	.	4r	.	4cc	-giar
.	.	.	.	4G#X	-gheg-	4e	Io	4b	po-
.	.	4r	.	4A	-gia-	4e	va-	8ccL	-tes-
.	.	.	.	.	.	.	.	8b	.
.	.	4e	Io	4E	-re,	4g	-gheg-	8b	.
.	.	.	.	.	.	.	.	16a	.
.	.	.	.	.	.	.	.	16gnXiJ	.
=22	=22	=22	=22	=22	=22	=22	=22	=22	=22
4r	.	4d	va-	4r	.	4f	-giar	4a	.
4E	Io	4B	-gheg-	4G	Io	4e	po-	4b	-si,
4E	va-	4e	-gia-	4c	va-	2g	-tes-	2r	.
4G	-gheg-	4d	-re	4B	-gheg-	.	.	.	.
4F	-giar	4r	.	8A	-giar	2c	-si,	4r	.
.	.	.	.	8A	po-	.	.	.	.
4E	po-	4e	po-	4.c	-tes-	.	.	4g	po-
2G	-tes-	2d	-tes-	.	.	2r	.	2g	-tes-
.	.	.	.	8B	.	.	.	.	.
.	.	.	.	4B	.	.	.	.	.
=23	=23	=23	=23	=23	=23	=23	=23	=23	=23
2C	-si	2e	-si	4c	-si	4r	.	2g	-si
.	.	.	.	4G	Mil-	4e	po-	.	.
4r	.	2r	.	4c	-le	2e	-tes-	2r	.
4.E	Mil-	.	.	4c	bel-	.	.	.	.
.	.	1r	.	2B	-lez-	2e	-si	2g	Mil-
8E	-le	.	.	.	.	.	.	.	.
4E	bel-	.	.	.	.	.	.	.	.
4F	-lez-	.	.	2A	-ze	4r	.	4cc	-le
4A	-ze	.	.	.	.	4e	Mil-	4cc	bel-
=24	=24	=24	=24	=24	=24	=24	=24	=24	=24
2G	tue	4r	.	2.d	tue	4g	-le	2b	-lez-
.	.	4G	Mil-	.	.	4d	bel-	.	.
2r	.	4A	-le	.	.	4f	-lez-	2a	-ze
.	.	4A	bel-	4c	con	4e	-ze	.	.
2r	.	2.G	-lez-	8BL	oc-	2g	tue	2dd	tue
.	.	.	.	8A	.	.	.	.	.
.	.	.	.	8B	.	.	.	.	.
.	.	.	.	8cJ	.	.	.	.	.
4r	.	.	.	4d	.	2g	con	4b	con
4C	con	4E	-ze	4e	-chi	.	.	[4ee	oc-
=25	=25	=25	=25	=25	=25	=25	=25	=25	=25
8CL	oc-	2e	tue	4E	mil-	2.g	oc-	8ee]L	.
8D	.	.	.	.	.	.	.	8ddJ	.
8E	.	.	.	4E	-le,	.	.	4cc	.
8FJ	.	.	.	.	.	.	.	.	.
4G	.	4d	con	4r	.	.	.	4b	-chi
4A	-chi	2c	oc-	2A	con	4e	-chi	4.cc	mil-
8AAL	mil-	.	.	.	.	1e	mil-	.	.
8BB	.	.	.	.	.	.	.	8b	.
8C	.	4c	-chi	2E	oc-	.	.	4.a	.
8DJ	.	.	.	.	.	.	.	.	.
2E	.	2B	mil-	.	.	.	.	.	.
.	.	.	.	.	.	.	.	8g#X	.
.	.	.	.	4e	-chi	.	.	4g#X	.
=26	=26	=26	=26	=26	=26	=26	=26	=26	=26
0AAl	-le.	0Al	-le.	8eL	mil-	0el	-le.	0al	-le.
.	.	.	.	8d	.	.	.	.	.
.	.	.	.	8c#i	.	.	.	.	.
.	.	.	.	8BJ	.	.	.	.	.
.	.	.	.	2c#X	.	.	.	.	.
.	.	.	.	1c#Xl	-le.	.	.	.	.
==	==	==	==	==	==	==	==	==	==
*-	*-	*-	*-	*-	*-	*-	*-	*-	*-
!!!system-decoration: [*]
!!!YEM:	Pietro Vinci, "Mentre mia stella miri" 1573 (Trm 0560a; 25 Sep 2018) Tasso in Music Project (http://www.tassomusic.org) Copyright 2018 Emiliano Ricciardi
!!!RDF**kern: i = editorial accidental
!!!RDF**kern: l = terminal long
!!!ENC: Emiliano Ricciardi
!!!END: 2018
!!!EED: Donnelly, Daniel
!!!EEV: 2018/10/28
!!!YEC: Copyright 2018 Emiliano Ricciardi, All Rights Reserved
!!!ONB: Translated from MusicXML on 2018/10/28 and edited by Craig Stuart Sapp
!!@@BEGIN:	VERSEDATA
!!@SOLERTI:	560
!!@CATALOGNUM:	Trm0560
!!@LAST_MODIFIED: 2020/07/12
!!@TITLE:		Tarquinia, se rimiri
!!@GENRE:		madrigale
!!@MANUSRC:	A<sub>3</sub>, C, E<sub>1</sub>, E<sub>7</sub>, F<sub>2</sub>, V<sub>8</sub>, V<sub>9</sub>, V<sub>13/E1</sub>
!!@PRINTSRC:	8, 9, 11, 12, 13, 15, 20, 24, 33, 67, 141, 145, 166, 169
!!@@BEGIN:	VERSES
!!@ABOUTIT:	A la signora Tarquinia Molza la quale studiando la sfera andava la sera a contemplar le stelle.
!!@ABOUTEN:	To lady Tarquinia Molza who, studying the globe, went to contemplate the stars at night.
!!@EDITOR:	Solerti, Angelo
!!@EDITION_TITLE: Le Rime di Torquato Tasso
!!@EDITION_LOC:	Bologna
!!@EDITION_PUB:	Romagnoli-Dall’Acqua
!!@EDITION_DATE:  1898-1902
!!@EDITION_VOL:	3
!!@EDITION_PAGE:  79
!!@TRANSLATOR:	Emiliano Ricciardi and Amyrose McCue Gill
!!@VERSE:
!!	Tarquinia, se rimiri
!!	I bei celesti giri,
!!	Il cielo esser vorrei;
!!	Perché ne gli occhi miei
!!	Fisso tu rivolgessi
!!	Le tue dolci faville,
!!	Io vagheggiar potessi
!!	Mille bellezze tue con luci mille.
!!@TVERSE:
!!	Tarquinia, if I look upon
!!	The beautiful blue spheres,
!!	The sky I wish to be;
!!	So that to my eyes
!!	Raptly you may turn
!!	Your sweet sparks,
!!	And I may long for
!!	Your thousand beauties with a thousand 	lights.
!!@@END:		VERSES
!!@OTHER_CRIT_ED:   Torquato Tasso, <i>Rime d’amore (secondo il codice
!!		Chigiano L VIII 302)</i>, eds. Franco Gavazzeni and
!!		Vercingetorige Martignone, vol. 4 of <i>Edizione
!!		Nazionale delle opere di Torquato Tasso</i>
!!		(Alessandria: Edizioni Dell’Orso, 2004), 171.
!!@ATTRIBUTION_ABOUT:	Secure
!!		<br>
!!		Among other authoritative sources (see Literary
!!		Sources), this poem appears in the autograph Chigiano
!!		L.VIII.302 (Biblioteca Vaticana, Rome), compiled
!!		around 1584&ndash;85.
!!@DATING:	In or before 1571
!!		<br>
!!		The earliest datable appearance of this poem is in a musical setting by Ferrarese composer Luzzasco Luzzaschi published in 1571 (see Musical Settings). In this setting, the text is subtantially different than in later musical and literary sources (see Literary Variants).
!!@DEDICATEE:	Molza, Tarquinia Molza
!!@DEDICATEE_INFO:	(1542-1617)
!!@COMMENTARY:
!!@@END:		VERSEDATA
!!@@BEGIN:	SETTING
!!@CATALOGNUM:	Trm0560b
!!@RIMETITLE:	Tarquinia, se rimiri
!!@SETTINGTITLE:	Mentre, mia stella, miri
!!@SOLERTI:	560
!!@COMPOSER:	Vinci, Pietro
!!@PRINCEPSTITLE:	Il quarto libro de madrigali a cinque voci
!!@PRINCEPSLOC:	Vineggia
!!@NORMLOC:	Venice
!!@NORMPUB:	Heir of G. Scotto
!!@NORMPUBSHORT:	Scotto
!!@PRINCEPSPUB:	Herede di Scotto
!!@PRINCEPSYEAR:	1573
!!@PRINCEPSRISM:	V 1679
!!@REPRINTS:	
!!@OVOICES:	5
!!@EXTANTVOICES:	5
!!@PARTBOOKS:	
!!@EXTPARTBOOKS:	
!!@OCLEFS:	C1,C3,C4,C4,F4
!!@OMENSURATION:	C
!!@OKEYSIG:	-
!!@FINAL:	A
!!@TIMPEDITOR:	Donnelly, Daniel
!!@NOTE:		
!!@@END:		SETTING
